assets/Military medal/Flat/military_medal_flat.svg

<svg width="32" height="32" viewBox="0 0 32 32" fill="none" xmlns="http://www.w3.org/2000/svg">
<path d="M7.12009 2H24.9026C25.5057 2 26 2.51 26 3.14V8.93001C26 9.33001 25.7924 9.71 25.4562 9.91L21.65 12.21L20.04 13.0859V13.63H12.04V13.0805L10.44 12.21L6.555 9.91C6.21191 9.71 6 9.33001 6 8.93001V3.14C6 2.51 6.50455 2 7.12009 2Z" fill="#0074BA"/>
<path d="M10.44 12.21V2H13.04L13.05 13.63L10.44 12.21Z" fill="#D3D3D3"/>
<path d="M19.04 13.63V2H21.65V12.21L19.04 13.63Z" fill="#D3D3D3"/>
<path d="M19.04 2H13.04V13.63H19.04V2Z" fill="#F8312F"/>
<path d="M16.04 30C21.5849 30 26.08 25.3931 26.08 19.7101C26.08 14.027 21.5849 9.42004 16.04 9.42004C10.4951 9.42004 6 14.027 6 19.7101C6 25.3931 10.4951 30 16.04 30Z" fill="#FFB02E"/>
<path d="M16.05 28.76C13.69 28.76 11.47 27.82 9.80997 26.11C8.13997 24.4 7.21997 22.13 7.21997 19.71C7.21997 17.29 8.13997 15.02 9.80997 13.31C13.25 9.77998 18.85 9.77998 22.3 13.31C25.74 16.84 25.74 22.58 22.3 26.11C20.62 27.82 18.4 28.76 16.05 28.76ZM16.04 11.89C14.09 11.89 12.13 12.65 10.65 14.18C9.20997 15.66 8.41997 17.62 8.41997 19.71C8.41997 21.8 9.20997 23.76 10.65 25.24C12.09 26.72 14.01 27.53 16.04 27.53C18.08 27.53 19.99 26.72 21.43 25.24C24.4 22.19 24.4 17.23 21.43 14.18C19.95 12.65 18 11.89 16.04 11.89Z" fill="#FCD53F"/>
<path d="M16.65 15.66L17.48 17.38C17.58 17.58 17.77 17.73 17.99 17.76L19.84 18.04C20.39 18.12 20.62 18.82 20.21 19.22L18.93 20.5C18.74 20.69 18.68 20.97 18.76 21.23L19.35 22.94C19.55 23.51 18.99 24.05 18.44 23.81L16.3 22.85C16.13 22.77 15.93 22.77 15.76 22.85L13.62 23.81C13.08 24.05 12.51 23.51 12.71 22.94L13.3 21.23C13.39 20.97 13.32 20.69 13.13 20.5L11.85 19.22C11.45 18.82 11.67 18.12 12.22 18.04L14.07 17.76C14.29 17.73 14.48 17.59 14.58 17.38L15.41 15.66C15.68 15.14 16.4 15.14 16.65 15.66Z" fill="#6D4534"/>
</svg>

<svg xmlns="http://www.w3.org/2000/svg" width="32" height="32" fill="none"><path fill="#0074BA" d="M7.12 2h17.783C25.506 2 26 2.51 26 3.14v5.79c0 .4-.208.78-.544.98l-3.806 2.3-1.61.876v.544h-8v-.55l-1.6-.87-3.885-2.3A1.14 1.14 0 0 1 6 8.93V3.14C6 2.51 6.505 2 7.12 2Z"/><path fill="#D3D3D3" d="M10.44 12.21V2h2.6l.01 11.63-2.61-1.42ZM19.04 13.63V2h2.61v10.21l-2.61 1.42Z"/><path fill="#F8312F" d="M19.04 2h-6v11.63h6V2Z"/><path fill="#FFB02E" d="M16.04 30c5.545 0 10.04-4.607 10.04-10.29 0-5.683-4.495-10.29-10.04-10.29C10.495 9.42 6 14.027 6 19.71 6 25.393 10.495 30 16.04 30Z"/><path fill="#FCD53F" d="M16.05 28.76c-2.36 0-4.58-.94-6.24-2.65a9.098 9.098 0 0 1-2.59-6.4c0-2.42.92-4.69 2.59-6.4a8.69 8.69 0 0 1 12.49 0c3.44 3.53 3.44 9.27 0 12.8-1.68 1.71-3.9 2.65-6.25 2.65Zm-.01-16.87c-1.95 0-3.91.76-5.39 2.29a7.872 7.872 0 0 0-2.23 5.53c0 2.09.79 4.05 2.23 5.53a7.476 7.476 0 0 0 5.39 2.29c2.04 0 3.95-.81 5.39-2.29 2.97-3.05 2.97-8.01 0-11.06a7.46 7.46 0 0 0-5.39-2.29Z"/><path fill="#6D4534" d="m16.65 15.66.83 1.72c.1.2.29.35.51.38l1.85.28c.55.08.78.78.37 1.18l-1.28 1.28c-.19.19-.25.47-.17.73l.59 1.71c.2.57-.36 1.11-.91.87l-2.14-.96a.637.637 0 0 0-.54 0l-2.14.96c-.54.24-1.11-.3-.91-.87l.59-1.71c.09-.26.02-.54-.17-.73l-1.28-1.28c-.4-.4-.18-1.1.37-1.18l1.85-.28c.22-.03.41-.17.51-.38l.83-1.72c.27-.52.99-.52 1.24 0Z"/></svg>
